!!!COM: Anon.
!!!OTL: Fuku-Ju-So
!!!OTC: Japanese Popular Music: A Collection of The Popular Music of Japan Rendered in to the Staff notation.
!!!CNT: Nippon, Japanese
!!!TXO: Nippon, Japan
!!!OCY: Nippon, Japan
!!!ODT: <1892///
!!!PSR: S. Miki & Co.
!!!PSP: Osaka, Nippon
!!!PDT: 1892///
!!!PPE: Y Nagai & K. Kobatake
!!!PED: Revised Second Edition
!!!PPG: page 101
!! Andante
**kern	**silbe
*ICstr	*Lnippon
*ICvox	*
*Ikoto	*
*Ivox	*
*clefG2	*
*k[]	*
*M4/4	*
=1-	=1-
2e 2ee	.
2e	.
=2	=2
(4f	.
4.e	.
8c	.
4B)	.
=3	=3
4d	.
4e	.
4f	.
(4d	.
=4	=4
2e)	.
4f	.
4a	.
=5	=5
(4.b	.
8a)	.
2f	.
=6	=6
(8.b	.
16a	.
4f)	.
4e	.
4d	.
=7	=7
4.e	.
8c	.
2B	.
=8	=8
4c	.
4B	.
(4d	.
4e	.
=9	=9
4a	.
4.f)	.
8d	.
8e	.
8e	.
=10	=10
4e	.
4e	.
2e	.
=11	=11
4B 4a	.
4B 4a	.
4B 4b	.
4B 4a	.
=12	=12
4.B 4.b	.
8b	.
4e	.
4a	.
=13	=13
4b	.
4r	.
(4ee	.
4cc)	.
=14	=14
2.b?	.
[4b	.
=15	=15
4..b]	.
16a	.
(4f	.
4e)	.
=16	=16
2a	.
(4b	.
8a	.
8b)	.
=17	=17
4B	.
4r	.
(4ee	.
4cc)	.
=18	=18
2b	.
(4cc	.
4b	.
=19	=19
2a)	.
4a	.
4r	.
=20	=20
4a	.
8a	.
8a	.
4f	.
4e	.
=21	=21
2f	.
4e	.
4r	.
=22	=22
4a	.
8a	.
8a	.
4f	.
4e	.
=23	=23
2f	.
4e	.
=24	=24
8f	.
8dd	.
8dd	.
8dd	.
8f	.
8dd	.
8dd	.
8dd	.
=25	=25
4ff	.
4aa	.
4ff	.
8a	.
8b	.
=26	=26
4cc	.
4b	.
4a	.
4f	.
=27	=27
8r	.
16b	.
16a	.
4f	.
4.e	.
8c	.
=28	=28
4B	.
4a	.
4b	.
4ee	.
=29	=29
4cc	.
4b	.
2cc	.
=30	=30
4r	.
4cc	.
(4cc	.
4ff)	.
=31	=31
(4ee	.
4cc)	.
2cc	.
=32	=32
(4cc	.
4b	.
4a)	.
4f	.
=33	=33
(4f	.
8a	.
8b)	.
4cc	.
4b	.
=34	=34
(4a	.
2f)	.
8a	.
8f	.
=35	=35
4f	.
4a	.
4f	.
8f	.
8a	.
=36	=36
4b	.
2cc	.
4cc	.
=37	=37
4b	.
4a	.
(8.b	.
16a	.
4f)	.
=38	=38
(4e	.
4B)	.
2B	.
=39	=39
2B	.
(4f	.
4e)	.
=40	=40
(4f	.
4d)	.
2e	.
=41	=41
2d;	.
4E 4e	.
4r	.
==	==
*-	*-
!!!ENC: David Huron
!!!RDT: 2000/1/30
!!!EEV: Release 1.0
!!!ELF: 27/28
!!!YER: 2000/2/1
!!!YEM: Copyright David Huron, 2000
!!!YEN: United States of America
